svg/aws-efs.svg

<?xml version="1.0" encoding="UTF-8"?>
<svg xmlns="http://www.w3.org/2000/svg" xmlns:xlink="http://www.w3.org/1999/xlink" width="32" height="32" viewBox="0 0 32 32">
<defs>
<linearGradient id="linear-pattern-0" gradientUnits="userSpaceOnUse" x1="0" y1="1" x2="1" y2="0" gradientTransform="matrix(32, 0, 0, 32, 0, 0)">
<stop offset="0" stop-color="rgb(10.588235%, 40%, 5.882353%)" stop-opacity="1"/>
<stop offset="1" stop-color="rgb(42.352941%, 68.235294%, 24.313725%)" stop-opacity="1"/>
</linearGradient>
</defs>
<rect x="-3.2" y="-3.2" width="38.4" height="38.4" fill="url(#linear-pattern-0)"/>
<path fill-rule="evenodd" fill="rgb(100%, 100%, 100%)" fill-opacity="1" d="M 26.429688 5 L 22.9375 5 L 22.9375 6 L 25.164062 6 L 22.527344 8.648438 L 23.230469 9.351562 L 25.929688 6.648438 L 25.929688 9 L 26.925781 9 L 26.925781 5.5 C 26.925781 5.222656 26.703125 5 26.429688 5 M 5.925781 6.648438 L 8.621094 9.351562 L 9.328125 8.648438 L 6.6875 6 L 8.917969 6 L 8.917969 5 L 5.425781 5 C 5.148438 5 4.925781 5.222656 4.925781 5.5 L 4.925781 9 L 5.925781 9 Z M 25.929688 25.351562 L 23.230469 22.648438 L 22.527344 23.351562 L 25.164062 26 L 22.9375 26 L 22.9375 27 L 26.429688 27 C 26.703125 26.996094 26.925781 26.773438 26.925781 26.5 L 26.925781 23 L 25.929688 23 Z M 10.421875 13.234375 C 10.421875 11.761719 11.449219 10.175781 12.757812 9.625 C 15.03125 8.671875 16.640625 9.925781 17.226562 10.507812 C 17.707031 10.984375 18.082031 11.597656 18.339844 12.324219 C 18.402344 12.496094 18.554688 12.621094 18.734375 12.652344 C 18.914062 12.675781 19.09375 12.601562 19.207031 12.457031 C 19.480469 12.09375 19.875 11.886719 20.292969 11.886719 C 20.917969 11.886719 21.683594 12.375 21.761719 13.753906 C 21.777344 13.976562 21.9375 14.164062 22.15625 14.214844 C 23.789062 14.558594 24.613281 15.457031 24.613281 16.894531 C 24.613281 17.25 24.570312 17.574219 24.484375 17.855469 L 25.441406 18.144531 C 25.558594 17.738281 25.613281 17.316406 25.609375 16.894531 C 25.609375 15.085938 24.589844 13.828125 22.71875 13.320312 C 22.480469 11.652344 21.324219 10.886719 20.292969 10.886719 C 19.824219 10.886719 19.375 11.03125 18.988281 11.296875 C 18.722656 10.742188 18.363281 10.234375 17.929688 9.796875 C 16.410156 8.289062 14.332031 7.878906 12.371094 8.703125 C 10.691406 9.410156 9.421875 11.355469 9.421875 13.234375 C 9.421875 13.292969 9.425781 13.359375 9.429688 13.421875 C 7.925781 13.953125 7.042969 15.21875 7.042969 16.871094 C 7.042969 16.957031 7.046875 17.039062 7.050781 17.121094 C 7.132812 18.582031 8.105469 19.84375 9.527344 20.335938 L 9.851562 19.390625 C 8.816406 19.03125 8.105469 18.121094 8.046875 17.066406 C 8.042969 17.003906 8.042969 16.9375 8.042969 16.871094 C 8.042969 15.050781 9.316406 14.460938 10.078125 14.269531 C 10.324219 14.210938 10.484375 13.976562 10.453125 13.726562 C 10.433594 13.5625 10.421875 13.398438 10.421875 13.234375 M 20.414062 17.300781 C 20.414062 17.144531 20.378906 17.054688 20.351562 17.027344 C 20.324219 17.003906 20.261719 16.992188 20.179688 17 L 15.160156 17 C 15.027344 17 14.898438 16.949219 14.804688 16.855469 C 14.710938 16.761719 14.660156 16.632812 14.660156 16.5 C 14.648438 16.332031 14.628906 16.164062 14.597656 16 L 13.453125 16 C 13.40625 16.164062 13.375 16.332031 13.355469 16.503906 C 13.347656 16.773438 13.128906 16.992188 12.859375 17 L 11.707031 17 C 11.589844 16.992188 11.527344 17.003906 11.503906 17.027344 C 11.472656 17.054688 11.4375 17.144531 11.4375 17.300781 L 11.4375 22.5 L 20.414062 22.5 Z M 21.410156 18.5 L 21.410156 20.882812 L 22.601562 18.5 Z M 21.359375 23.222656 L 21.355469 23.222656 C 21.273438 23.390625 21.101562 23.5 20.914062 23.5 L 10.941406 23.5 C 10.808594 23.5 10.679688 23.449219 10.585938 23.355469 C 10.492188 23.261719 10.4375 23.132812 10.441406 23 L 10.441406 17.300781 C 10.441406 16.765625 10.648438 16.460938 10.824219 16.296875 C 10.984375 16.144531 11.273438 15.96875 11.742188 16 L 12.417969 16 C 12.5 15.5625 12.699219 15 13.167969 15 L 14.914062 15 C 14.945312 15 14.976562 15.003906 15.007812 15.007812 C 15.40625 15.085938 15.5625 15.589844 15.621094 16 L 20.144531 16 C 20.46875 15.96875 20.789062 16.074219 21.03125 16.296875 C 21.203125 16.460938 21.410156 16.765625 21.410156 17.300781 L 21.410156 17.5 L 23.40625 17.5 C 23.578125 17.5 23.738281 17.589844 23.832031 17.734375 C 23.921875 17.882812 23.929688 18.070312 23.851562 18.222656 Z M 9.328125 23.351562 L 6.6875 26 L 8.917969 26 L 8.917969 27 L 5.425781 27 C 5.292969 27 5.164062 26.949219 5.070312 26.855469 C 4.976562 26.761719 4.925781 26.632812 4.925781 26.5 L 4.925781 23 L 5.925781 23 L 5.925781 25.351562 L 8.621094 22.648438 Z M 9.328125 23.351562 "/>
</svg>

<svg role="img" viewBox="0 0 32 32" xmlns="http://www.w3.org/2000/svg"><defs><linearGradient gradientTransform="scale(32)" gradientUnits="userSpaceOnUse" id="aws-efs_svg__a" x1="0" x2="1" y1="1" y2="0"><stop offset="0" stop-color="rgb(10.588235%, 40.000001%, 5.882353%)"/><stop offset="1" stop-color="rgb(42.352942%, 68.235296%, 24.313726%)"/></linearGradient></defs><path d="M-3.2-3.2h38.4v38.4H-3.2z" fill="url(#aws-efs_svg__a)"/><path d="M26.43 5h-3.492v1h2.226l-2.637 2.648.703.704 2.7-2.704V9h.996V5.5c0-.277-.223-.5-.496-.5M5.926 6.648 8.62 9.352l.707-.704L6.688 6h2.23V5H5.426c-.278 0-.5.223-.5.5V9h1ZM25.93 25.352l-2.7-2.704-.703.704L25.164 26h-2.227v1h3.493a.503.503 0 0 0 .496-.5V23h-.996ZM10.422 13.234c0-1.472 1.027-3.058 2.336-3.609 2.273-.953 3.883.3 4.469.883.48.476.855 1.09 1.113 1.816a.51.51 0 0 0 .394.328c.18.024.36-.05.473-.195.273-.363.668-.57 1.086-.57.625 0 1.39.488 1.469 1.867.015.223.175.41.394.46 1.633.345 2.457 1.243 2.457 2.68 0 .356-.043.68-.129.961l.957.29c.118-.407.172-.829.168-1.25 0-1.81-1.02-3.067-2.89-3.575-.239-1.668-1.395-2.433-2.426-2.433-.469 0-.918.144-1.305.41a5.5 5.5 0 0 0-1.058-1.5c-1.52-1.508-3.598-1.918-5.559-1.094-1.68.707-2.95 2.652-2.95 4.531 0 .059.005.125.009.188-1.504.531-2.387 1.797-2.387 3.45q.001.127.008.25c.082 1.46 1.054 2.722 2.476 3.214l.325-.945c-1.036-.36-1.747-1.27-1.805-2.325q-.005-.094-.004-.195c0-1.82 1.273-2.41 2.035-2.601a.494.494 0 0 0 .375-.543 4 4 0 0 1-.031-.493m9.992 4.067c0-.156-.035-.246-.062-.274-.028-.023-.09-.035-.172-.027h-5.02a.5.5 0 0 1-.355-.145.5.5 0 0 1-.145-.355 4 4 0 0 0-.062-.5h-1.145a3 3 0 0 0-.098.504.513.513 0 0 1-.496.496h-1.152c-.117-.008-.18.004-.203.027-.031.028-.066.118-.066.274V22.5h8.976Zm.996 1.199v2.383l1.192-2.383Zm-.05 4.723h-.005a.49.49 0 0 1-.44.277H10.94a.5.5 0 0 1-.355-.145.5.5 0 0 1-.145-.355v-5.7c0-.534.207-.84.383-1.003.16-.152.45-.328.918-.297h.676c.082-.437.281-1 .75-1h1.746q.047.001.094.008c.398.078.555.582.613.992h4.524a1.14 1.14 0 0 1 .886.297c.172.164.38.469.38 1.004v.199h1.995a.51.51 0 0 1 .426.234c.09.149.098.336.02.489Zm-12.032.129L6.688 26h2.23v1H5.426a.5.5 0 0 1-.356-.145.5.5 0 0 1-.144-.355V23h1v2.352l2.695-2.704Zm0 0" fill="rgb(100%, 100%, 100%)" fill-rule="evenodd"/></svg>
